assets/img/bathroom.svg

<svg 
 xmlns="http://www.w3.org/2000/svg"
 xmlns:xlink="http://www.w3.org/1999/xlink"
 width="50px" height="50px">
<path fill-rule="evenodd"  fill-opacity="0" fill="rgb(33, 130, 238)"
 d="M0.000,0.000 L50.000,0.000 L50.000,50.000 L0.000,50.000 L0.000,0.000 Z"/>
<path fill-rule="evenodd"  fill="rgb(33, 130, 238)"
 d="M33.000,21.875 C32.550,21.875 32.250,21.575 32.250,21.125 L32.250,20.750 C32.250,20.300 32.550,20.000 33.000,20.000 C33.450,20.000 33.750,20.300 33.750,20.750 L33.750,21.125 C33.750,21.575 33.450,21.875 33.000,21.875 ZM33.000,26.375 C33.450,26.375 33.750,26.675 33.750,27.125 L33.750,27.500 C33.750,27.950 33.450,28.250 33.000,28.250 C32.550,28.250 32.250,27.950 32.250,27.500 L32.250,27.125 C32.250,26.675 32.550,26.375 33.000,26.375 ZM32.250,24.575 L32.250,23.750 C32.250,23.300 32.550,23.000 33.000,23.000 C33.450,23.000 33.750,23.300 33.750,23.750 L33.750,24.575 C33.750,24.950 33.450,25.325 33.000,25.325 C32.550,25.325 32.250,25.025 32.250,24.575 L32.250,24.575 ZM29.250,20.750 C29.250,20.300 29.550,20.000 30.000,20.000 C30.450,20.000 30.750,20.300 30.750,20.750 L30.750,21.125 C30.750,21.575 30.450,21.875 30.000,21.875 C29.550,21.875 29.250,21.575 29.250,21.125 L29.250,20.750 ZM30.000,26.375 C30.450,26.375 30.750,26.675 30.750,27.125 L30.750,27.500 C30.750,27.950 30.450,28.250 30.000,28.250 C29.550,28.250 29.250,27.950 29.250,27.500 L29.250,27.125 C29.250,26.675 29.550,26.375 30.000,26.375 ZM29.250,23.750 C29.250,23.300 29.550,23.000 30.000,23.000 C30.450,23.000 30.750,23.300 30.750,23.750 L30.750,24.575 C30.750,24.950 30.450,25.325 30.000,25.325 C29.550,25.325 29.250,25.025 29.250,24.575 L29.250,23.750 ZM26.250,20.750 C26.250,20.300 26.550,20.000 27.000,20.000 C27.450,20.000 27.750,20.300 27.750,20.750 L27.750,21.125 C27.750,21.575 27.450,21.875 27.000,21.875 C26.550,21.875 26.250,21.575 26.250,21.125 L26.250,20.750 ZM27.000,26.375 C27.450,26.375 27.750,26.675 27.750,27.125 L27.750,27.500 C27.750,27.950 27.450,28.250 27.000,28.250 C26.550,28.250 26.250,27.950 26.250,27.500 L26.250,27.125 C26.250,26.675 26.550,26.375 27.000,26.375 ZM26.250,23.750 C26.250,23.300 26.550,23.000 27.000,23.000 C27.450,23.000 27.750,23.300 27.750,23.750 L27.750,24.575 C27.750,24.950 27.450,25.325 27.000,25.325 C26.550,25.325 26.250,25.025 26.250,24.575 L26.250,23.750 ZM42.750,35.000 L41.868,35.000 L39.825,43.100 C39.241,45.292 37.233,46.914 34.910,46.996 L35.850,48.875 C36.000,49.250 35.850,49.700 35.550,49.850 C35.475,50.000 35.400,50.000 35.250,50.000 C34.950,50.000 34.725,49.850 34.575,49.550 L33.300,47.000 L12.487,47.000 L11.175,49.625 C11.025,49.850 10.800,50.000 10.500,50.000 C10.425,50.000 10.275,50.000 10.200,49.925 C9.825,49.775 9.675,49.325 9.900,48.950 L10.875,47.000 L10.275,47.000 C7.875,47.000 5.775,45.350 5.175,43.025 L3.151,35.000 L2.250,35.000 C0.975,35.000 0.000,34.025 0.000,32.750 C0.000,31.475 0.975,30.500 2.250,30.500 L2.323,30.500 C2.662,28.770 4.158,27.500 6.000,27.500 C6.675,27.500 7.350,27.725 7.950,28.025 C8.550,26.825 9.825,26.000 11.250,26.000 C12.450,26.000 13.500,26.600 14.250,27.500 C16.093,27.500 17.588,28.770 17.927,30.500 L40.500,30.500 L40.500,14.750 C40.500,11.825 38.175,9.500 35.250,9.500 C32.438,9.500 31.006,11.696 30.782,14.079 C32.495,14.430 33.750,15.919 33.750,17.750 C33.750,18.200 33.450,18.500 33.000,18.500 L27.000,18.500 C26.550,18.500 26.250,18.200 26.250,17.750 C26.250,15.899 27.533,14.398 29.276,14.068 C29.543,10.462 31.930,8.000 35.250,8.000 C39.000,8.000 42.000,11.000 42.000,14.750 L42.000,30.500 L42.750,30.500 C44.025,30.500 45.000,31.475 45.000,32.750 C45.000,34.025 44.025,35.000 42.750,35.000 ZM27.900,17.000 L32.175,17.000 C31.875,16.100 31.050,15.500 30.075,15.500 C29.100,15.500 28.200,16.100 27.900,17.000 ZM6.675,42.650 C7.125,44.300 8.625,45.500 10.350,45.500 L34.800,45.500 C36.525,45.500 38.025,44.300 38.475,42.650 L40.275,35.000 L4.725,35.000 L6.675,42.650 ZM14.325,29.000 C14.250,29.000 14.175,29.000 14.100,29.000 C13.800,29.075 13.425,28.925 13.275,28.625 C12.900,27.875 12.150,27.500 11.325,27.500 C10.200,27.500 9.300,28.325 9.075,29.450 C9.000,29.750 8.850,29.975 8.550,30.050 C8.250,30.125 7.950,30.050 7.800,29.825 C7.275,29.300 6.675,29.000 6.000,29.000 C5.025,29.000 4.200,29.600 3.900,30.500 L16.425,30.500 C16.125,29.600 15.300,29.000 14.325,29.000 ZM42.750,32.000 L17.250,32.000 L3.000,32.000 L2.250,32.000 C1.800,32.000 1.500,32.300 1.500,32.750 C1.500,33.200 1.800,33.500 2.250,33.500 L3.750,33.500 L41.250,33.500 L42.750,33.500 C43.200,33.500 43.500,33.200 43.500,32.750 C43.500,32.300 43.200,32.000 42.750,32.000 Z"/>
</svg>

<?xml version="1.0" encoding="utf-8"?>
<!-- Generator: Adobe Illustrator 22.1.0, SVG Export Plug-In . SVG Version: 6.00 Build 0)  -->
<svg version="1.1" id="Слой_1" xmlns="http://www.w3.org/2000/svg" xmlns:xlink="http://www.w3.org/1999/xlink" x="0px" y="0px"
	 viewBox="0 0 50 50" style="enable-background:new 0 0 50 50;" xml:space="preserve">
<style type="text/css">
	.st0{fill:#2182EE;fill-opacity:0;}
	.st1{fill:#1196FF;}
</style>
<path class="st0" d="M0,0h50v50H0V0z"/>
<path class="st1" d="M33,21.9c-0.5,0-0.8-0.3-0.8-0.8v-0.4c0-0.5,0.3-0.8,0.8-0.8s0.8,0.3,0.8,0.8v0.4C33.8,21.6,33.5,21.9,33,21.9z
	 M33,26.4c0.5,0,0.8,0.3,0.8,0.8v0.4c0,0.5-0.3,0.8-0.8,0.8s-0.8-0.3-0.8-0.8v-0.4C32.2,26.7,32.5,26.4,33,26.4z M32.2,24.6v-0.8
	c0-0.5,0.3-0.8,0.8-0.8s0.8,0.3,0.8,0.8v0.8c0,0.4-0.3,0.8-0.8,0.8S32.2,25,32.2,24.6L32.2,24.6z M29.2,20.8c0-0.5,0.3-0.8,0.8-0.8
	s0.8,0.3,0.8,0.8v0.4c0,0.5-0.3,0.8-0.8,0.8s-0.8-0.3-0.8-0.8V20.8z M30,26.4c0.5,0,0.8,0.3,0.8,0.8v0.4c0,0.5-0.3,0.8-0.8,0.8
	s-0.8-0.3-0.8-0.8v-0.4C29.2,26.7,29.5,26.4,30,26.4z M29.2,23.8c0-0.5,0.3-0.8,0.8-0.8s0.8,0.3,0.8,0.8v0.8c0,0.4-0.3,0.8-0.8,0.8
	s-0.8-0.3-0.8-0.8V23.8z M26.2,20.8c0-0.5,0.3-0.8,0.8-0.8s0.8,0.3,0.8,0.8v0.4c0,0.5-0.3,0.8-0.8,0.8s-0.8-0.3-0.8-0.8V20.8z
	 M27,26.4c0.5,0,0.8,0.3,0.8,0.8v0.4c0,0.5-0.3,0.8-0.8,0.8s-0.8-0.3-0.8-0.8v-0.4C26.2,26.7,26.5,26.4,27,26.4z M26.2,23.8
	c0-0.5,0.3-0.8,0.8-0.8s0.8,0.3,0.8,0.8v0.8c0,0.4-0.3,0.8-0.8,0.8s-0.8-0.3-0.8-0.8V23.8z M42.8,35h-0.9l-2,8.1
	c-0.6,2.2-2.6,3.8-4.9,3.9l0.9,1.9c0.2,0.4,0,0.8-0.3,1C35.5,50,35.4,50,35.2,50c-0.3,0-0.5-0.2-0.7-0.5L33.3,47H12.5l-1.3,2.6
	C11,49.8,10.8,50,10.5,50c-0.1,0-0.2,0-0.3-0.1c-0.4-0.1-0.5-0.6-0.3-1l1-2h-0.6c-2.4,0-4.5-1.7-5.1-4l-2-8H2.2C1,35,0,34,0,32.8
	c0-1.3,1-2.2,2.2-2.2h0.1c0.3-1.7,1.8-3,3.7-3c0.7,0,1.3,0.2,1.9,0.5c0.6-1.2,1.9-2,3.3-2c1.2,0,2.2,0.6,3,1.5c1.8,0,3.3,1.3,3.7,3
	h22.6V14.8c0-2.9-2.3-5.2-5.2-5.2c-2.8,0-4.2,2.2-4.5,4.6c1.7,0.4,3,1.8,3,3.7c0,0.5-0.3,0.8-0.8,0.8h-6c-0.5,0-0.8-0.3-0.8-0.8
	c0-1.9,1.3-3.4,3-3.7c0.3-3.6,2.7-6.1,6-6.1C39,8,42,11,42,14.8v15.8h0.8c1.3,0,2.2,1,2.2,2.2C45,34,44,35,42.8,35z M27.9,17h4.3
	c-0.3-0.9-1.1-1.5-2.1-1.5C29.1,15.5,28.2,16.1,27.9,17z M6.7,42.7c0.4,1.6,1.9,2.8,3.7,2.8h24.4c1.7,0,3.2-1.2,3.7-2.8l1.8-7.7H4.7
	L6.7,42.7z M14.3,29c-0.1,0-0.1,0-0.2,0c-0.3,0.1-0.7-0.1-0.8-0.4c-0.4-0.8-1.1-1.1-1.9-1.1c-1.1,0-2,0.8-2.2,2
	C9,29.8,8.9,30,8.6,30c-0.3,0.1-0.6,0-0.8-0.2C7.3,29.3,6.7,29,6,29c-1,0-1.8,0.6-2.1,1.5h12.5C16.1,29.6,15.3,29,14.3,29z M42.8,32
	H17.2H3H2.2c-0.5,0-0.8,0.3-0.8,0.8s0.3,0.8,0.8,0.8h1.5h37.5h1.5c0.5,0,0.8-0.3,0.8-0.8S43.2,32,42.8,32z"/>
</svg>
